X:1
T:Sonata in E minor
T:Sonata in E minor
T:Op. 7, Movement II
T:Edvard Grieg (1843-1907) 
C:Edvard Grieg (1843-1907)
%%score { ( 1 4 ) | ( 2 3 ) }
L:1/8
Q:1/4=92
M:4/4
K:C
V:1 treble nm="Grand Piano" snm="Pno."
V:4 treble 
V:2 bass 
V:3 bass 
V:1
"^Andante molto"!p! z2 (c2 B>A B2 | G2 E>F G3 E | C2) E>E A,2!<(! CE!<)! | %3
!mp!!>(! G>G ^F!>)!!p!E G2 G2 | z2 ([cc']2 [Bb]>[Aa] [Bb]2 | [Gg]2 [Ee]>[Ff] [Gg]3 [Ee]) | %6
!<(! [Cc]2 [Ee]>[Ee]!<)!!mf!!>(! [Aa]2 [Gg][Gg]!>)! | %7
!p! A2 f2{/xx} (3(!arpeggio!e3/2c/e) (3:2:2(d2 e) || %8
[M:12/8][Q:1/4=138]"^L'istesso tempo" (c6- c3 G2 A | _B3 A2 G c3 G2 A) | %10
 (4:6:4(c_BAG!<(! (4:6:4dcGA)!<)! |!ff! !>![_B_b]3 !>![Aa]3 !>![^G^g]3!>(! !>![Aa]3!>)! | %12
!p! [dd']6- [dd']3 (A2 B | c3 B2 A d3 A2 B) | (4:6:4(dcBA!<(! (4:6:4edAB)!<)! | %15
!ff! !>![cc']3 !>![Bb]3 !>![^A^a]3!>(! !>![Bb]3!>)! | %16
!p![Q:1/4=150]"^un poco più vivo" (e/^f/g/f/e/^d/ B/d/e/f/g) (f/g/f/d/B/d/ f3) | %17
 (e/^f/g/f/e/^c/ B/c/e/f/g) (f/g/f/=d/B/d/ f3) | %18
 (!>!f/g/a/g/f/d/!<(! B/d/f/g/a/) z/!<)!!mp!"_cresc." (!>!a/b/c'/b/a/f/ d/f/a/b/c'/) z/ | %19
!mf!"_cresc. molto" (!>!b/c'/d'/c'/b/^f/ c/f/b/c'/d'/c'/ b/f/d/c/B/^F/[I:staff +1] D/C/B,/^F,/D,/G,,/) | %20
!f![I:staff -1] .[B,D]([B,D]/[CE]/!<(![A,^F])!<)!!ff!!>(! ([B,D] [A,F]2)!>)!!f! .[B,D]([B,D]/[CE]/[A,F]) [B,D]3 | %21
 .[D^F]([DF]/[E^G]/!<(![^C^A])!<)!!ff!!>(! ([DF] [CA]2)!>)!!f! .[DF]([DF]/[EG]/[CA])!f! [DF]3 | %22
 A/B/d/^c/B/c/!<(! (3A/B/d/!<)!!ff! !>!c2!f! A/B/d/c/B/c/!<(! A3!<)! | %23
!ff! [fa]/b/d'/b/[fa]/b/ d'/b/[fa]/b/d'/b/ [fa]/b/d'/b/[fa]/b/ d'/b/[fa]/b/d'/b/ | %24
 [fa]/b/d'/b/[fa]/b/ [fa]/b/d'/b/a/f/ d/B/A/F/D/B,/[I:staff +1] A,/F,/D,/B,,/G,,/C,/ | %25
[I:staff -1] z2 z !>![cegc']3 !>![Bdgb]2 !>![Aa] !>![Bdgb]3 | %26
 !>![Gceg]3 !>![EGce]2 !>![Ff] !>![GBdg]3- !>![GBdg]2 !>![Ee] | %27
 !>![CFc]3 !>![EBe]2 [EBe] !>![A,CFA]3 !>![CGc]2 [Ee] | %28
 !>![Gcg]3 !>![^Fc^f]2 !>![Fce] !>![Gg]3 !>![Gg]3 | %29
[Q:1/4=138]"^a tempo"!pp! c3 !>![cc']3 !>![Bb]2 !>![Aa] !>![Bb]3 | %30
 !>![Gg]3 !>![Ee]2 !>![Ff] !>![Gg]3- [Gg]2 !>![Gg] | %31
!p!!>(! (!>![Gg]2!>)!!pp! !>![Ff] !>![Cc]2"_cresc." !>![Dd]) (!>![_E_e]3 !>![Dd]2 !>![Cc]) | %32
 !>![Cc]6- [Cc]3 [B,B]3 | !>![Cc-]12 | c12 | %35
 [cc']/b/_b/a/!>(!_a/g/ _g/f/e/_e/d/_d/ c/=B/_B/=A/_A/=G/ _G/F/=E/_E/=D/_D/!>)! | %36
[K:bass]!p!!>(! C/B,/_B,/A,/_A,/G,/ _G,/F,/E,/_E,/D,/_D,/!>)!!pp! C,/=D,/E,/A,/[Q:1/4=135]"^poco rit."C,/D,/[Q:3/8=88] E,/=G,/[Q:3/8=86]C,/D,/[Q:3/8=84]E,/F,/ | %37
[K:treble][Q:3/8=82] z2!<(! ([Gg]!<)!!mp!!>(! [_B_b]2!>)!!p!"_cresc. e poco sostenuto" [Aa]) z2!<(! ([Aa]!<)!!>(! [cc']2!>)! [=B=b]) | %38
!f! z ([aa'][Bb]) z ([_a_a'][Bb]) z ([gg'][Q:1/4=105]"^molto rit."[Bb])[Q:3/8=60] E[Q:3/8=55][Q:3/8=50]_E[Q:3/8=45][Q:3/8=40]!breath!D[Q:3/8=35] | %39
[Q:1/4=138]"^a tempo"!p! c6- c3 G2 A | (4:6:4cBAG _B3 F2 G | (4:6:4_BAGF A3 E2 ^F | G6 G6 | %43
!pp! z EG z EG z EG z EG |"_cresc." G,DG G,DG F,DF F,DF |!f! F,CF F,CF E,CE E,CE | %46
 z B,E z B,G!<(! z !>!B,!>!G[Q:1/4=135]"^ritard." z !>!C!>!_A!<)! | %47
!ff![Q:3/8=80] z !>!C!>!=A[Q:3/8=70]{/xxx} !>!e3-[Q:3/8=60] e!>(!ce[Q:3/8=50] d2 e!>)! | %48
!p![Q:1/4=138]"^a tempo""_sempre dim." (.[Ec]6 .[DE^GB]6 | .[CFA]6 .[^G,B,E]6 | %50
 .[A,CF]6 .[=G,CE]6 | .[F,CD]6 .[F,D]6) | %52
 z (CE,) z (CE,)[Q:1/4=135]"^molto ritard." z (CE,)[Q:3/8=80] z (CE,) | %53
[K:bass]!ppp![Q:3/8=70]!<(! x3!<)!!pp![Q:3/8=60] !>!E6-[Q:3/8=50][Q:3/8=40] E3 | %54
[K:treble]!ppp![Q:3/8=30] !arpeggio![G,Ec]12 |] %55
V:2
!ped! C,2 [G,E]2!ped-up!!ped! C,2 [G,D]2!ped-up! | %1
!ped! C,2 [G,C]2!ped-up!!ped! C,2 [B,D]2!ped-up! | %2
!ped! A,2!ped-up!!ped! G,2!ped-up!!ped! F,2!ped-up!!ped! E,2!ped-up! | %3
!ped! E,2!ped! D,4!ped!!ped-up!!ped! D,2 | %4
!ped! (3(C,,G,,C,(3E,G,C)!ped-up!!ped! (3(C,,G,,D,(3G,B,D)!ped-up! | %5
!ped! (3(C,,G,,C,(3E,G,C)!ped-up!!ped! (3(C,,G,,D,(3F,G,B,)!ped-up! | %6
!ped! (3z [A,C][A,C]!ped-up!!ped! (3z [G,B,][G,B,]!ped-up!!ped! (3z [D,B,F][D,B,F]!ped-up!!ped! (3z [E,B,E]!ped-up!!ped![E,_B,E]!ped-up! | %7
!ped! ^C2!ped-up!!ped! D2!ped-up!!ped! (3(=C3/2A,/C)!ped-up!!ped! (3:2:2(B,2!ped-up!!ped! A,)!ped-up! || %8
[M:12/8]!ped! (G,C[I:staff -1]E)[I:staff +1] (G,C[I:staff -1]E)[I:staff +1] (G,C[I:staff -1]E)[I:staff +1] (G,C[I:staff -1]E)!ped-up! | %9
!ped![I:staff +1] (D,_B,[I:staff -1]D)[I:staff +1] (D,B,[I:staff -1]D)!ped-up!!ped![I:staff +1] (G,C[I:staff -1]E)[I:staff +1] (G,C[I:staff -1]E)!ped-up! | %10
!ped![I:staff +1] D,_B,[I:staff -1]D!ped-up!!ped![I:staff +1] D,B,[I:staff -1]D!ped-up!!ped![I:staff +1] G,C[I:staff -1]E!ped-up!!ped![I:staff +1] G,C[I:staff -1]E!ped-up! | %11
!ped![I:staff +1] [^C,,^C,]z/[E,G,E]/[E,G,E] z3/2 [E,G,E]/[E,G,E] z3/2 [E,G,E]/[E,G,E] z3/2 [E,G,E]/[E,G,E]!ped-up! | %12
!ped! A,D[I:staff -1]^F[I:staff +1] A,D[I:staff -1]F[I:staff +1] A,D[I:staff -1]F[I:staff +1] A,D[I:staff -1]F!ped-up! | %13
!ped![I:staff +1] E,C[I:staff -1]E[I:staff +1] E,C[I:staff -1]E!ped-up!!ped![I:staff +1] A,D[I:staff -1]^F[I:staff +1] A,D[I:staff -1]F!ped-up! | %14
!ped![I:staff +1] E,C[I:staff -1]E!ped-up!!ped![I:staff +1] E,C[I:staff -1]E!ped-up!!ped![I:staff +1] A,D[I:staff -1]^F!ped-up!!ped![I:staff +1] A,D[I:staff -1]F!ped-up! | %15
!ped![I:staff +1] [^D,,^D,]z/[^F,A,^F]/[F,A,F] z3/2 [F,A,F]/[F,A,F] z3/2 [F,A,F]/[F,A,F] z3/2 [F,A,F]/[F,A,F]!ped-up! | %16
[K:treble] (([EG]6 [B,^F]6)) | (([EG]6 [B,^F]6)) | %18
!ped! (!>![B,=FA]3- [B,FA]2 .D,) (!>![B,FA]3- [B,FA]2 .D,)!ped-up! | %19
!ped! (!>![C^FB]3- [CFB]2 .D,) z2 z[K:bass] z2 z/!ped-up! G,,/- | %20
 [G,,D,]2 [D,,D,-] [G,,D,]2 [D,,D,-] D,6 | ^F,6 F,6 | A,6 A,3!ped! A,2 ^A,!ped-up! | %23
!ped! !arpeggio![G,,B,]2[K:treble] [A,A] !>![A,A]2[K:bass] [D,D] !>![D,D]2 [A,,A,] !>![A,,A,]2 [D,,D,] | %24
 !>![D,,D,]3!ped-up!!ped! !>![G,,,G,,]6 z2 z!ped-up! | %25
!ped! (C,,/G,,/C,/E,/G,/C/) z2 z!ped-up!!ped! (C,,/G,,/D,/G,/B,/D/) z2 z!ped-up! | %26
!ped! (C,,/G,,/C,/E,/G,/C/) z2 z!ped-up!!ped! (C,,/G,,/D,/F,/G,/B,/) z2 z!ped-up! | %27
!ped! (!>!A,,/C,,/A,,/D,/F,/) z/!ped-up!!ped! (!>!G,,/C,,/G,,/C,/E,/) z/!ped-up!!ped! (!>!F,,/C,,/F,,/A,,/C,/) z/!ped-up!!ped! (!>!E,,/C,,/E,,/G,,/C,/E,/)!ped-up! | %28
!ped! (A,,/E,/G,/!<(!C/D/^D/!ped-up!!<)!!ped! E/C/A,/^F,/E,/A,,/)!ped-up!!ped! (G,,/D,/G,/C/=F/C/ G,/)([^F,,^F,]/[=F,,=F,]/[E,,E,]/[_E,,_E,]/[D,,D,]/)!ped-up! | %29
!ped! ([C,,C,]/G,,/C,/E,/G,/C/ E/C/G,/E,/C,/G,,/)!ped-up!!ped! (C,,/G,,/D,/F,/G,/B,/ D/B,/G,/F,/D,/G,,/)!ped-up! | %30
!ped! (C,,/G,,/C,/E,/G,/C/ E/C/G,/E,/C,/G,,/)!ped-up!!ped! (_E,,/_B,,/_E,/G,/E,/B,,/)!ped-up!!ped! (=E,,/B,,/D,/G,/_D,/B,,/)!ped-up! | %31
!ped! (F,,/C,/_D,/=D,/_E,/=E,/ F,/E,/_E,/D,/_D,/C,/)!ped-up!!ped! (_A,,/E,/_A,/C/G,/E,/)!ped-up!!ped! (A,,/=D,/F,/C/F,/D,/)!ped-up! | %32
 z !>!^C,!>!D, !>!_E,!>!F,!>!G, !>!_A,2 !>!D, !>!G,3 | %33
 [C,C]/B,/_B,/A,/_A,/G,/ _G,/F,/E,/_E,/D,/_D,/ C,/=B,,/_B,,/=A,,/_A,,/=G,,/ _G,,/F,,/=E,,/_E,,/=D,,/_D,,/ | %34
!ped! [C,,C,]6 [B,,,B,,]3 [_B,,,_B,,]3!ped-up! | %35
 [A,,,C,,]/A,,/[A,,,C,,]/A,,/[A,,,C,,]/A,,/ [A,,,C,,]/A,,/[A,,,C,,]/A,,/[A,,,C,,]/A,,/ [_A,,,C,,]/_A,,/[A,,,C,,]/A,,/[A,,,C,,]/A,,/ [A,,,C,,]/A,,/[A,,,C,,]/A,,/[A,,,C,,]/A,,/ | %36
 [G,,,C,,]/G,,/[G,,,C,,]/G,,/[G,,,C,,]/G,,/ [G,,,C,,]/G,,/[G,,,C,,]/G,,/[G,,,C,,]/G,,/ [F,,,C,,-F,,]3 [G,,,C,,-G,,]2 [_A,,,C,,_A,,] | %37
!ped! [G,,,G,,][E,G,C][E,G,C] [E,G,^C][E,G,C]!ped-up![E,G,C]!ped! [G,,,G,,][F,A,D][F,A,D] [^F,A,^D][F,A,D]!ped-up![F,A,D] | %38
!ped! [G,,,G,,][K:treble] [B,=FA][B,FA] [B,F_A][B,FA][B,FA]!ped-up!!ped! [B,FG][B,FG][B,FG]!ped-up![K:bass] G,^F,=F, | %39
!ped! G,[I:staff -1]CE[I:staff +1] G,C[I:staff -1]E[I:staff +1] G,C[I:staff -1]E[I:staff +1] G,C[I:staff -1]E!ped-up! | %40
!ped![I:staff +1] D,B,[I:staff -1]D!ped-up!!ped![I:staff +1] D,B,[I:staff -1]D!ped-up!!ped![I:staff +1] F,_B,[I:staff -1]D[I:staff +1] F,B,[I:staff -1]D!ped-up! | %41
!ped![I:staff +1] C,A,[I:staff -1]C!ped-up!!ped![I:staff +1] C,A,[I:staff -1]C!ped-up!!ped![I:staff +1] E,A,[I:staff -1]C[I:staff +1] E,A,[I:staff -1]C!ped-up! | %42
!ped![I:staff +1] B,,G,[I:staff -1]B,[I:staff +1] E,G,[I:staff -1]B,!ped-up!!ped![I:staff +1] _E,G,[I:staff -1]B,!ped-up!!ped![I:staff +1] D,G,[I:staff -1]B,!ped-up! | %43
!ped![I:staff +1] C,6- C,3!<(! !>!G,,2 !>!A,,!ped-up!!<)! |!ped! D,6!ped-up!!ped! D,6!ped-up! | %45
!ped! C,6!ped-up!!ped! C,6!ped-up! |!ped! B,,6-!ped-up!!ped! B,,3!ped-up!!ped! C,3!ped-up! | %47
!ped! [D,,D,]3 !>!C3- CA,C!ped-up!!ped! B,2!ped-up!!ped! A,!ped-up! | %48
!ped! x12!ped-up!!ped!!ped-up! |!ped! x12!ped-up!!ped!!ped-up! |!ped! x12!ped-up!!ped!!ped-up! | %51
!ped! z6!ped-up!!ped! B,3 A,3!ped-up! |!ped! x12!ped-up!!ped!!ped-up!!ped!!ped-up! | %53
!ped! z2 z (!>!_A,,3!ped-up!!ped! !>!^F,,3!ped-up!!ped! !>!G,,3)!ped-up! | %54
!ped! !arpeggio![C,,G,,E,]12!ped-up! |] %55
V:3
 x8 | G,,4 C,4- | C,8 | A,,4 G,,4 | x8 | x8 | x8 | A,2 D,4 G,,2 ||[M:12/8] C,12 | G,,6 C,6 | %10
 G,,6 C,6 | x12 | D,12 | A,,6 D,6 | A,,6 D,6 | x12 |[K:treble] x12 | x12 | x12 | x9[K:bass] x3 | %20
 x6 G,,2 D,, G,,2 A,, | B,,2 ^F,, B,,2 F,, B,,2 F,, B,,2 ^C, | D,2 A,, D,2 A,, D,2 A,, D,3 | %23
 x2[K:treble] x3[K:bass] x7 | x12 | x12 | x12 | x12 | x12 | x12 | x12 | x12 | %32
 G,,6- G,,3- G,,2 G,, | x12 | C,,12 | x12 | x12 | x12 | x[K:treble] x8[K:bass] G,,3 | %39
 [C,,C,]3 C,6- C,3 | G,,6 _B,,6 | F,,6 A,,6 | E,,3 E,3 _E,3 G,,3 | x12 | %44
 (4:6:4!>!C,!>(!!>!B,,!>!A,,!>!G,,!>)! !>!_B,,3!<(! !>!F,,2 !>!G,,!<)! | %45
 (4:6:4!>!_B,,!>(!!>!A,,!>!G,,!>!F,,!>)! A,,3!<(! E,,2 ^F,,!<)! | %46
 (4:6:4A,,!>(!G,, ^F,,E,,!>)! _E,,6 | x3 D,3- D,3 G,,3 | (.[C,G,]6 .[E,,E,]6 | %49
 .[_E,,_E,]6 .[D,,D,]6 | .[C,,C,]6 .[A,,,A,,]6 | .[D,,,D,,]6 .[G,,,G,,-]6) | %52
 [C,,G,,]3 (!>![_A,,_A,]3 !>![^F,,^F,]3 !>![G,,G,]3) | C,,12 | x12 |] %55
V:4
 x8 | x8 | C2 B,2 A,2 G,2 | C4- C2 B,2 | x8 | x8 | x8 | G2 F2 F4 ||[M:12/8] x12 | x12 | x12 | x12 | %12
 x12 | x12 | x12 | x12 | x12 | x12 | x12 | x12 | x12 | x12 | ^F2 E F E2 F2 E F3 | x12 | x12 | x12 | %26
 x12 | x12 | x6 z/!<(! d/c/d/c/d/ z/ =f/B/f/B/!<)!!fff!f/ | %29
 z/ g/e/g/e/g/ z/ g/e/g/e/g/ z/ g/d/g/d/g/ z/ g/d/g/d/g/ | %30
 z/ e/c/e/c/e/ z/ c/G/c/z/c/ z/ _e/_B/e/B/e/ B/d/!<(!B/d/B/_d/!<)! | %31
 z/ c/_A/c/A/c/ z/ A/F/A/F/A/ z/ c/A/c/G/c/ z/ A/F/A/F/A/ | %32
 z/ _A/F/A/F/A/ F/A/F/A/F/A/ F/A/F/A/F/A/ z/ G/F/G/F/G/ | %33
 C/_E/C/E/C/E/ C/E/!>(!C/E/C/E/ C/E/C/E/!>)!!pp!C/E/ C/E/C/E/C/E/ | %34
 C/_E/C/E/C/E/ C/E/C/E/C/E/!<(! C/E/C/E/C/E/"_molto cresc." C/E/C/E/C/E/!<)! | x12 |[K:bass] x12 | %37
[K:treble] x12 | x9 E/[B,GB]/_E/[B,GB]/D/[B,GB]/ | x12 | x12 | x12 | x6 ^F3!>(! =F3!>)! | %43
 C3 G,3 G,3 G,3 | x12 | x12 | E,3 G,3 !>!^F,3 !>!F,3 | !>!=F,3 F6 F3 | x12 | x12 | x12 | x12 | %52
 x12 |[K:bass] z E,C z E,C z!>(! E,C z E,C!>)! |[K:treble] x12 |] %55

